pk/circle-three.svg

<svg viewBox="0 0 48 48" fill="none" xmlns="http://www.w3.org/2000/svg" height="1em" width="1em">
  <path d="M32.9037 13.9272C31.2464 17.1588 27.8814 19.3702 24 19.3702C20.1185 19.3702 16.7536 17.1588 15.0963 13.9272C11.3982 16.6591 9 21.0495 9 26.0001C9 26.8178 9.06543 27.6202 9.19135 28.4024C9.45807 28.3811 9.72775 28.3702 9.99996 28.3702C15.5228 28.3702 20 32.8474 20 38.3702C20 39.0665 19.9288 39.7461 19.7934 40.4022C21.128 40.7914 22.5397 41.0001 24 41.0001C25.4603 41.0001 26.8719 40.7914 28.2066 40.4022C28.0711 39.7461 28 39.0665 28 38.3702C28 32.8474 32.4771 28.3702 38 28.3702C38.2722 28.3702 38.5419 28.3811 38.8087 28.4024C38.9346 27.6202 39 26.8178 39 26.0001C39 21.0495 36.6017 16.6591 32.9037 13.9272Z" fill="#2F88FF" stroke="black" stroke-width="4" stroke-linecap="round" stroke-linejoin="round"/>
  <path fill-rule="evenodd" clip-rule="evenodd" d="M24 13C26.2091 13 28 11.2091 28 9C28 6.79086 26.2091 5 24 5C21.7909 5 20 6.79086 20 9C20 11.2091 21.7909 13 24 13Z" fill="#2F88FF" stroke="black" stroke-width="4" stroke-linecap="round" stroke-linejoin="round"/>
  <path fill-rule="evenodd" clip-rule="evenodd" d="M9 43C11.2091 43 13 41.2091 13 39C13 36.7909 11.2091 35 9 35C6.79086 35 5 36.7909 5 39C5 41.2091 6.79086 43 9 43Z" fill="#2F88FF" stroke="black" stroke-width="4" stroke-linecap="round" stroke-linejoin="round"/>
  <path fill-rule="evenodd" clip-rule="evenodd" d="M39 43C41.2091 43 43 41.2091 43 39C43 36.7909 41.2091 35 39 35C36.7909 35 35 36.7909 35 39C35 41.2091 36.7909 43 39 43Z" fill="#2F88FF" stroke="black" stroke-width="4" stroke-linecap="round" stroke-linejoin="round"/>
</svg>

<svg viewBox="0 0 48 48" fill="none" xmlns="http://www.w3.org/2000/svg" height="1em" width="1em">
  <path d="M32.904 13.927A10 10 0 0 1 24 19.37a10 10 0 0 1-8.904-5.443A14.979 14.979 0 0 0 9 26c0 .818.065 1.62.191 2.402.267-.02.537-.032.809-.032 5.523 0 10 4.477 10 10 0 .697-.071 1.376-.207 2.032 1.335.39 2.747.598 4.207.598s2.872-.209 4.207-.598A10.038 10.038 0 0 1 28 38.37c0-5.523 4.477-10 10-10 .272 0 .542.011.809.032A15.11 15.11 0 0 0 39 26c0-4.95-2.398-9.34-6.096-12.073Z" fill="#2F88FF" stroke="#000" stroke-width="4" stroke-linecap="round" stroke-linejoin="round"/>
  <path fill-rule="evenodd" clip-rule="evenodd" d="M24 13a4 4 0 1 0 0-8 4 4 0 0 0 0 8ZM9 43a4 4 0 1 0 0-8 4 4 0 0 0 0 8Zm30 0a4 4 0 1 0 0-8 4 4 0 0 0 0 8Z" fill="#2F88FF" stroke="#000" stroke-width="4" stroke-linecap="round" stroke-linejoin="round"/>
</svg>
